X:6
T:T204B- Chevy Chace
S:Oswald's CPC, bk 5, c 1753
Q:60
L:1/4
M:3/4
K:Amixolydian
A|A3/4B/4dd|e3/4f/4A3/2a/2|a/(g/4f/4) {f/}e3/2d/|B2z/A/|\
A/B/dd|e3/4f/4A3/2a/|a/f/ (ef3/4)a/4|A2|]

